assets/img/google_play.svg

<svg id="artwork" xmlns="http://www.w3.org/2000/svg" viewBox="0 0 135 40"><defs><style>.cls-1,.cls-8,.cls-9{fill:#fff}.cls-2{fill:url(#linear-gradient)}.cls-3{fill:url(#linear-gradient-2)}.cls-4{fill:url(#linear-gradient-3)}.cls-5{fill:url(#linear-gradient-4)}.cls-6{opacity:.2}.cls-6,.cls-7,.cls-8{isolation:isolate}.cls-7{opacity:.12}.cls-8{opacity:.25}.cls-9{stroke:#fff;stroke-miterlimit:10;stroke-width:.2px}</style><linearGradient id="linear-gradient" x1="21.8" y1="173.29" x2="5.02" y2="156.51" gradientTransform="matrix(1 0 0 -1 0 182)" gradientUnits="userSpaceOnUse"><stop offset="0" stop-color="#00a0ff"/><stop offset=".01" stop-color="#00a1ff"/><stop offset=".26" stop-color="#00beff"/><stop offset=".51" stop-color="#00d2ff"/><stop offset=".76" stop-color="#00dfff"/><stop offset="1" stop-color="#00e3ff"/></linearGradient><linearGradient id="linear-gradient-2" x1="33.83" y1="162" x2="9.64" y2="162" gradientTransform="matrix(1 0 0 -1 0 182)" gradientUnits="userSpaceOnUse"><stop offset="0" stop-color="#ffe000"/><stop offset=".41" stop-color="#ffbd00"/><stop offset=".78" stop-color="orange"/><stop offset="1" stop-color="#ff9c00"/></linearGradient><linearGradient id="linear-gradient-3" x1="24.83" y1="159.7" x2="2.07" y2="136.95" gradientTransform="matrix(1 0 0 -1 0 182)" gradientUnits="userSpaceOnUse"><stop offset="0" stop-color="#ff3a44"/><stop offset="1" stop-color="#c31162"/></linearGradient><linearGradient id="linear-gradient-4" x1="7.3" y1="181.82" x2="17.46" y2="171.66" gradientTransform="matrix(1 0 0 -1 0 182)" gradientUnits="userSpaceOnUse"><stop offset="0" stop-color="#32a071"/><stop offset=".07" stop-color="#2da771"/><stop offset=".48" stop-color="#15cf74"/><stop offset=".8" stop-color="#06e775"/><stop offset="1" stop-color="#00f076"/></linearGradient></defs><title>google_play</title><rect width="135" height="40" rx="5" ry="5"/><path class="cls-1" d="M68.14 21.75A4.25 4.25 0 1 0 72.41 26a4.19 4.19 0 0 0-4.27-4.25zm0 6.83a2.58 2.58 0 1 1 2.4-2.58 2.46 2.46 0 0 1-2.4 2.58zm-9.31-6.83A4.25 4.25 0 1 0 63.09 26a4.19 4.19 0 0 0-4.27-4.25zm0 6.83A2.58 2.58 0 1 1 61.22 26a2.46 2.46 0 0 1-2.4 2.58zm-11.09-5.52v1.8h4.32a3.77 3.77 0 0 1-1 2.27 4.42 4.42 0 0 1-3.33 1.32 4.8 4.8 0 0 1 0-9.6A4.6 4.6 0 0 1 51 20.14l1.27-1.27A6.29 6.29 0 0 0 47.74 17a6.61 6.61 0 1 0 0 13.21 6 6 0 0 0 4.61-1.85 6 6 0 0 0 1.56-4.22 5.87 5.87 0 0 0-.1-1.13h-6.07zm45.31 1.4a4 4 0 0 0-3.64-2.71 4 4 0 0 0-4 4.25 4.16 4.16 0 0 0 4.22 4.25 4.23 4.23 0 0 0 3.54-1.88l-1.45-1a2.43 2.43 0 0 1-2.09 1.18 2.16 2.16 0 0 1-2.06-1.29l5.69-2.35zm-5.8 1.42a2.33 2.33 0 0 1 2.22-2.48 1.65 1.65 0 0 1 1.58.9zM82.63 30h1.87V17.5h-1.87V30zm-3.06-7.3h-.07a3 3 0 0 0-2.24-1 4.26 4.26 0 0 0 0 8.51 2.9 2.9 0 0 0 2.24-1h.06v.69c0 1.63-.87 2.5-2.27 2.5a2.35 2.35 0 0 1-2.14-1.51l-1.63.68a4.05 4.05 0 0 0 3.77 2.51c2.19 0 4-1.29 4-4.43V22h-1.72v.7zm-2.14 5.88a2.59 2.59 0 0 1 0-5.16A2.4 2.4 0 0 1 79.7 26a2.38 2.38 0 0 1-2.28 2.58zm24.38-11.08h-4.48V30h1.87v-4.74h2.61a3.89 3.89 0 1 0 0-7.76zm0 6H99.2v-4.26h2.65a2.14 2.14 0 1 1 0 4.28zm11.53-1.8a3.5 3.5 0 0 0-3.33 1.91l1.66.69a1.77 1.77 0 0 1 1.7-.92 1.8 1.8 0 0 1 2 1.61v.13a4.13 4.13 0 0 0-1.95-.48c-1.79 0-3.6 1-3.6 2.81a2.89 2.89 0 0 0 3.1 2.75 2.63 2.63 0 0 0 2.4-1.2h.06v1h1.8v-4.81c0-2.19-1.66-3.46-3.79-3.46zm-.23 6.85a1.3 1.3 0 0 1-1.46-1.06c0-1 1.06-1.33 2-1.33a3.32 3.32 0 0 1 1.7.42 2.26 2.26 0 0 1-2.19 2zM123.74 22l-2.14 5.42h-.06L119.32 22h-2l3.33 7.58-1.9 4.21h1.95L125.82 22h-2.07zm-16.81 8h1.87V17.5h-1.87V30z"/><path class="cls-2" d="M10.44 7.54a2 2 0 0 0-.44 1.4v22.12a2 2 0 0 0 .46 1.4l.07.07L22.9 20.15v-.3L10.51 7.47z"/><path class="cls-3" d="M27 24.28l-4.1-4.13v-.3l4.1-4.13.09.05L32 18.56c1.4.79 1.4 2.09 0 2.89l-4.89 2.78z"/><path class="cls-4" d="M27.12 24.23L22.9 20 10.44 32.46a1.63 1.63 0 0 0 2.08.06l14.61-8.3"/><path class="cls-5" d="M27.12 15.78l-14.61-8.3a1.63 1.63 0 0 0-2.08.06L22.9 20z"/><path class="cls-6" d="M27 24.13l-14.49 8.25a1.67 1.67 0 0 1-2 0l-.07.07.07.07a1.66 1.66 0 0 0 2 0l14.61-8.3z"/><path class="cls-7" d="M10.44 32.32a2 2 0 0 1-.46-1.4v.15a2 2 0 0 0 .46 1.4l.07-.07zM32 21.3l-5 2.83.09.09L32 21.44A1.75 1.75 0 0 0 33 20a1.86 1.86 0 0 1-1 1.3z"/><path class="cls-8" d="M12.51 7.62L32 18.7a1.86 1.86 0 0 1 1 1.3 1.75 1.75 0 0 0-1-1.44L12.51 7.48C11.12 6.68 10 7.34 10 8.94v.15c0-1.6 1.12-2.26 2.51-1.47z"/><path class="cls-9" d="M42.11 14.27h-.73v-2H42a2.86 2.86 0 0 0 .76-2.3V7h4v5.26h.64v2h-.74V13h-4.55v1.27zM43.5 10a4 4 0 0 1-.57 2.3h3V7.74H43.5V10zm9.91 2.22a3.12 3.12 0 0 1-4.4 0 3.07 3.07 0 0 1-.88-2.22A3.07 3.07 0 0 1 49 7.78a3.1 3.1 0 0 1 4.4 0 3.07 3.07 0 0 1 .9 2.22 3.07 3.07 0 0 1-.89 2.22zm-3.83-.5a2.31 2.31 0 0 0 3.26 0 2.35 2.35 0 0 0 .67-1.72 2.35 2.35 0 0 0-.67-1.72 2.31 2.31 0 0 0-3.26 0 2.35 2.35 0 0 0-.66 1.72 2.35 2.35 0 0 0 .66 1.72zm8.6 1.41A3.06 3.06 0 0 1 55.06 10a3.06 3.06 0 0 1 3.12-3.13 2.77 2.77 0 0 1 2.2 1l-.54.52a2 2 0 0 0-1.67-.76 2.27 2.27 0 0 0-1.66.66 2.32 2.32 0 0 0-.66 1.71 2.32 2.32 0 0 0 .67 1.73 2.27 2.27 0 0 0 1.66.66 2.37 2.37 0 0 0 1.82-.86l.54.54a2.92 2.92 0 0 1-1 .78 3.15 3.15 0 0 1-1.36.28zm5.5-.13h-.77V7.74h-1.68V7h4.12v.74h-1.67V13zm6.97-6l-2.27 5.06A1.51 1.51 0 0 1 67 13.13a1.54 1.54 0 0 1-.6-.13l.2-.71a.81.81 0 0 0 .4.11.71.71 0 0 0 .41-.1.94.94 0 0 0 .27-.38l.22-.48L65.87 7h.91l1.48 3.44L69.74 7h.91zm.87 6V7h4.34v6h-.77V7.74h-2.8V13h-.77zm5.71 0V7H78v2.57h3V7h.77v6H81v-2.71h-3V13h-.77zm10.83-.78a3.12 3.12 0 0 1-4.4 0 3.07 3.07 0 0 1-.89-2.22 3.07 3.07 0 0 1 .88-2.22 3.1 3.1 0 0 1 4.4 0 3.07 3.07 0 0 1 .89 2.22 3.07 3.07 0 0 1-.88 2.22zm-3.83-.5a2.31 2.31 0 0 0 3.26 0 2.35 2.35 0 0 0 .66-1.72 2.35 2.35 0 0 0-.67-1.72 2.31 2.31 0 0 0-3.26 0 2.35 2.35 0 0 0-.66 1.72 2.35 2.35 0 0 0 .67 1.72zM92.09 13V7h2.17a1.76 1.76 0 0 1 1.22.46A1.51 1.51 0 0 1 96 8.63a1.31 1.31 0 0 1-.22.75 1.39 1.39 0 0 1-.59.49 1.52 1.52 0 0 1 .73.52 1.36 1.36 0 0 1 .29.85 1.57 1.57 0 0 1-.54 1.22 1.85 1.85 0 0 1-1.28.49h-2.3zm.77-3.43h1.4a.9.9 0 0 0 .74-.29A.89.89 0 0 0 95 8a.86.86 0 0 0-.67-.29h-1.47v1.86zm0 2.69h1.55a.92.92 0 0 0 .73-.26 1 1 0 0 0 .28-.68 1 1 0 0 0-1-1h-1.56v2z"/></svg>

<svg id="artwork" xmlns="http://www.w3.org/2000/svg" xmlns:xlink="http://www.w3.org/1999/xlink" viewBox="0 0 135 40"><defs><style>.cls-1,.cls-8,.cls-9{fill:#fff;}.cls-2{fill:url(#linear-gradient);}.cls-3{fill:url(#linear-gradient-2);}.cls-4{fill:url(#linear-gradient-3);}.cls-5{fill:url(#linear-gradient-4);}.cls-6{opacity:0.2;}.cls-6,.cls-7,.cls-8{isolation:isolate;}.cls-7{opacity:0.12;}.cls-8{opacity:0.25;}.cls-9{stroke:#fff;stroke-miterlimit:10;stroke-width:0.2px;}</style><linearGradient id="linear-gradient" x1="21.8" y1="173.29" x2="5.02" y2="156.51" gradientTransform="matrix(1, 0, 0, -1, 0, 182)" gradientUnits="userSpaceOnUse"><stop offset="0" stop-color="#00a0ff"/><stop offset="0.01" stop-color="#00a1ff"/><stop offset="0.26" stop-color="#00beff"/><stop offset="0.51" stop-color="#00d2ff"/><stop offset="0.76" stop-color="#00dfff"/><stop offset="1" stop-color="#00e3ff"/></linearGradient><linearGradient id="linear-gradient-2" x1="33.83" y1="162" x2="9.64" y2="162" gradientTransform="matrix(1, 0, 0, -1, 0, 182)" gradientUnits="userSpaceOnUse"><stop offset="0" stop-color="#ffe000"/><stop offset="0.41" stop-color="#ffbd00"/><stop offset="0.78" stop-color="orange"/><stop offset="1" stop-color="#ff9c00"/></linearGradient><linearGradient id="linear-gradient-3" x1="24.83" y1="159.7" x2="2.07" y2="136.95" gradientTransform="matrix(1, 0, 0, -1, 0, 182)" gradientUnits="userSpaceOnUse"><stop offset="0" stop-color="#ff3a44"/><stop offset="1" stop-color="#c31162"/></linearGradient><linearGradient id="linear-gradient-4" x1="7.3" y1="181.82" x2="17.46" y2="171.66" gradientTransform="matrix(1, 0, 0, -1, 0, 182)" gradientUnits="userSpaceOnUse"><stop offset="0" stop-color="#32a071"/><stop offset="0.07" stop-color="#2da771"/><stop offset="0.48" stop-color="#15cf74"/><stop offset="0.8" stop-color="#06e775"/><stop offset="1" stop-color="#00f076"/></linearGradient></defs><title>google_play</title><rect width="135" height="40" rx="5" ry="5"/><path class="cls-1" d="M68.14,21.75A4.25,4.25,0,1,0,72.41,26,4.19,4.19,0,0,0,68.14,21.75Zm0,6.83A2.58,2.58,0,1,1,70.54,26,2.46,2.46,0,0,1,68.14,28.58Zm-9.31-6.83A4.25,4.25,0,1,0,63.09,26,4.19,4.19,0,0,0,58.82,21.75Zm0,6.83A2.58,2.58,0,1,1,61.22,26,2.46,2.46,0,0,1,58.82,28.58ZM47.74,23.06v1.8h4.32a3.77,3.77,0,0,1-1,2.27,4.42,4.42,0,0,1-3.33,1.32,4.8,4.8,0,0,1,0-9.6A4.6,4.6,0,0,1,51,20.14l1.27-1.27A6.29,6.29,0,0,0,47.74,17a6.61,6.61,0,1,0,0,13.21,6,6,0,0,0,4.61-1.85,6,6,0,0,0,1.56-4.22,5.87,5.87,0,0,0-.1-1.13H47.74Zm45.31,1.4a4,4,0,0,0-3.64-2.71,4,4,0,0,0-4,4.25,4.16,4.16,0,0,0,4.22,4.25,4.23,4.23,0,0,0,3.54-1.88l-1.45-1a2.43,2.43,0,0,1-2.09,1.18,2.16,2.16,0,0,1-2.06-1.29l5.69-2.35Zm-5.8,1.42a2.33,2.33,0,0,1,2.22-2.48,1.65,1.65,0,0,1,1.58.9ZM82.63,30H84.5V17.5H82.63V30Zm-3.06-7.3H79.5a3,3,0,0,0-2.24-1,4.26,4.26,0,0,0,0,8.51,2.9,2.9,0,0,0,2.24-1h0.06V29.9c0,1.63-.87,2.5-2.27,2.5a2.35,2.35,0,0,1-2.14-1.51l-1.63.68a4.05,4.05,0,0,0,3.77,2.51c2.19,0,4-1.29,4-4.43V22H79.57V22.7Zm-2.14,5.88a2.59,2.59,0,0,1,0-5.16A2.4,2.4,0,0,1,79.7,26,2.38,2.38,0,0,1,77.42,28.58ZM101.81,17.5H97.33V30H99.2V25.26h2.61A3.89,3.89,0,1,0,101.81,17.5Zm0,6H99.2V19.24h2.65A2.14,2.14,0,1,1,101.85,23.52Zm11.53-1.8a3.5,3.5,0,0,0-3.33,1.91l1.66,0.69a1.77,1.77,0,0,1,1.7-.92,1.8,1.8,0,0,1,2,1.61v0.13a4.13,4.13,0,0,0-1.95-.48c-1.79,0-3.6,1-3.6,2.81a2.89,2.89,0,0,0,3.1,2.75A2.63,2.63,0,0,0,115.32,29h0.06v1h1.8V25.19C117.18,23,115.52,21.73,113.39,21.73Zm-0.23,6.85a1.3,1.3,0,0,1-1.46-1.06c0-1,1.06-1.33,2-1.33a3.32,3.32,0,0,1,1.7.42A2.26,2.26,0,0,1,113.16,28.58ZM123.74,22l-2.14,5.42h-0.06L119.32,22h-2l3.33,7.58-1.9,4.21h1.95L125.82,22h-2.07Zm-16.81,8h1.87V17.5h-1.87V30Z"/><path class="cls-2" d="M10.44,7.54A2,2,0,0,0,10,8.94V31.06a2,2,0,0,0,.46,1.4l0.07,0.07L22.9,20.15V19.85L10.51,7.47Z"/><path class="cls-3" d="M27,24.28L22.9,20.15V19.85L27,15.72l0.09,0.05L32,18.56c1.4,0.79,1.4,2.09,0,2.89l-4.89,2.78Z"/><path class="cls-4" d="M27.12,24.23L22.9,20,10.44,32.46a1.63,1.63,0,0,0,2.08.06l14.61-8.3"/><path class="cls-5" d="M27.12,15.78L12.51,7.48a1.63,1.63,0,0,0-2.08.06L22.9,20Z"/><path class="cls-6" d="M27,24.13L12.51,32.38a1.67,1.67,0,0,1-2,0h0l-0.07.07h0l0.07,0.07h0a1.66,1.66,0,0,0,2,0l14.61-8.3Z"/><path class="cls-7" d="M10.44,32.32a2,2,0,0,1-.46-1.4v0.15a2,2,0,0,0,.46,1.4l0.07-.07Z"/><path class="cls-7" d="M32,21.3l-5,2.83,0.09,0.09L32,21.44a1.75,1.75,0,0,0,1-1.44h0A1.86,1.86,0,0,1,32,21.3Z"/><path class="cls-8" d="M12.51,7.62L32,18.7a1.86,1.86,0,0,1,1,1.3h0a1.75,1.75,0,0,0-1-1.44L12.51,7.48C11.12,6.68,10,7.34,10,8.94V9.09C10,7.49,11.12,6.83,12.51,7.62Z"/><path class="cls-9" d="M42.11,14.27H41.38v-2H42a2.86,2.86,0,0,0,.76-2.3V7h4v5.26H47.4v2H46.66V13H42.11v1.27ZM43.5,10a4,4,0,0,1-.57,2.3h3V7.74H43.5V10Z"/><path class="cls-9" d="M53.41,12.22a3.12,3.12,0,0,1-4.4,0A3.07,3.07,0,0,1,48.13,10,3.07,3.07,0,0,1,49,7.78a3.1,3.1,0,0,1,4.4,0A3.07,3.07,0,0,1,54.3,10,3.07,3.07,0,0,1,53.41,12.22Zm-3.83-.5a2.31,2.31,0,0,0,3.26,0A2.35,2.35,0,0,0,53.51,10a2.35,2.35,0,0,0-.67-1.72,2.31,2.31,0,0,0-3.26,0A2.35,2.35,0,0,0,48.92,10,2.35,2.35,0,0,0,49.58,11.72Z"/><path class="cls-9" d="M58.18,13.13A3.06,3.06,0,0,1,55.06,10a3.06,3.06,0,0,1,3.12-3.13,2.77,2.77,0,0,1,2.2,1l-0.54.52a2,2,0,0,0-1.67-.76,2.27,2.27,0,0,0-1.66.66A2.32,2.32,0,0,0,55.85,10a2.32,2.32,0,0,0,.67,1.73,2.27,2.27,0,0,0,1.66.66A2.37,2.37,0,0,0,60,11.53l0.54,0.54a2.92,2.92,0,0,1-1,.78A3.15,3.15,0,0,1,58.18,13.13Z"/><path class="cls-9" d="M63.68,13H62.91V7.74H61.23V7h4.12V7.74H63.68V13Z"/><path class="cls-9" d="M70.65,7l-2.27,5.06A1.51,1.51,0,0,1,67,13.13a1.54,1.54,0,0,1-.6-0.13l0.2-.71a0.81,0.81,0,0,0,.4.11,0.71,0.71,0,0,0,.41-0.1,0.94,0.94,0,0,0,.27-0.38l0.22-.48L65.87,7h0.91l1.48,3.44h0L69.74,7h0.91Z"/><path class="cls-9" d="M71.52,13V7h4.34v6H75.09V7.74h-2.8V13H71.52Z"/><path class="cls-9" d="M77.23,13V7H78V9.57h3V7h0.77v6H81V10.29H78V13H77.23Z"/><path class="cls-9" d="M88.06,12.22a3.12,3.12,0,0,1-4.4,0A3.07,3.07,0,0,1,82.77,10a3.07,3.07,0,0,1,.88-2.22,3.1,3.1,0,0,1,4.4,0A3.07,3.07,0,0,1,88.94,10,3.07,3.07,0,0,1,88.06,12.22Zm-3.83-.5a2.31,2.31,0,0,0,3.26,0A2.35,2.35,0,0,0,88.15,10a2.35,2.35,0,0,0-.67-1.72,2.31,2.31,0,0,0-3.26,0A2.35,2.35,0,0,0,83.56,10,2.35,2.35,0,0,0,84.23,11.72Z"/><path class="cls-9" d="M92.09,13V7h2.17a1.76,1.76,0,0,1,1.22.46A1.51,1.51,0,0,1,96,8.63a1.31,1.31,0,0,1-.22.75,1.39,1.39,0,0,1-.59.49v0a1.52,1.52,0,0,1,.73.52,1.36,1.36,0,0,1,.29.85,1.57,1.57,0,0,1-.54,1.22,1.85,1.85,0,0,1-1.28.49H92.09Zm0.77-3.43h1.4A0.9,0.9,0,0,0,95,9.28,0.89,0.89,0,0,0,95,8a0.86,0.86,0,0,0-.67-0.29H92.86V9.57Zm0,2.69h1.55A0.92,0.92,0,0,0,95.14,12a1,1,0,0,0,.28-0.68,1,1,0,0,0-1-1H92.86v2Z"/></svg>
